dist/images/svg-star.svg

<svg width="12" height="13" viewBox="0 0 12 13" fill="none" xmlns="http://www.w3.org/2000/svg">
<path d="M6.57935 0.608036L7.9328 3.47569C8.02692 3.67513 8.2089 3.81333 8.41941 3.84527L11.446 4.30515C11.9761 4.38577 12.1876 5.06682 11.8042 5.4576L9.61416 7.68974C9.46197 7.84495 9.39238 8.06874 9.42843 8.28782L9.94532 11.4397C10.0359 11.9917 9.48174 12.4126 9.00765 12.1522L6.30075 10.6642C6.11252 10.5608 5.88748 10.5608 5.69925 10.6642L2.99235 12.1522C2.51826 12.4129 1.96406 11.9917 2.05468 11.4397L2.57157 8.28782C2.60762 8.06874 2.53803 7.84495 2.38584 7.68974L0.195843 5.4576C-0.187638 5.06656 0.0238776 4.3855 0.554043 4.30515L3.58059 3.84527C3.7911 3.81333 3.97308 3.67513 4.0672 3.47569L5.42065 0.608036C5.65745 0.105752 6.3423 0.105752 6.57935 0.608036Z" fill="#FFB21C"/>
</svg>

<svg width="12" height="13" fill="none" xmlns="http://www.w3.org/2000/svg"><path d="M6.58.608l1.353 2.868c.094.2.276.337.486.37l3.027.46c.53.08.742.76.358 1.152L9.614 7.69a.695.695 0 00-.186.598l.517 3.152c.09.552-.463.973-.937.712L6.3 10.664a.622.622 0 00-.602 0l-2.707 1.488c-.474.26-1.028-.16-.937-.712l.517-3.152a.695.695 0 00-.186-.598L.196 5.458c-.384-.391-.172-1.072.358-1.153l3.027-.46a.649.649 0 00.486-.37L5.421.609a.634.634 0 011.158 0z" fill="#FFB21C"/></svg>
